!!!OTL: Der Vorwirt Es wollt' ein Herr ausreite
!!!ARE: Europa, Mitteleuropa, Deutschland / France, Lothringen
!!!YOR: 5, S. 21
!!    ????
!!!SCT: Q0089M
!!!YEM: Copyright 1995, estate of Helmut Schaffrath.
**kern
*ICvox
*Ivox
*M4/4
*k[f#]
*G:
{4d
=1
4.g
8cc
4b
4d
=2
4b
4g
4r}
{4d
=3
4.g
8cc
4b
4d
=4
4b
4g
4r}
{4dd
=5
4.b
8a
8g
8g
4g
=6
4.f#
8g
4a}
{4cc
=7
4.b
8a
4g
4g
=8
4.a
8b
4g}
==
!!!AGN: Ballade, Mord, Grab, Auferstehen, Geist
!! Schlusston rhythmisch korrigiert.
!!!ONB: ESAC (Essen Associative Code) Database: BALLADE
!!!AMT: simple quadruple
!!!AIN: vox
!!!EED: Helmut Schaffrath
!!!EEV: 1.0
*-
